Numix/64/status/weather-snow.svg

<?xml version="1.0" encoding="UTF-8" standalone="yes"?>
<svg xmlns="http://www.w3.org/2000/svg" xmlns:xlink="http://www.w3.org/1999/xlink" width="64px" height="64px" viewBox="0 0 48 48" version="1.1">
  <defs>
    <clipPath id="clip1">
      <rect width="48" height="48"/>
    </clipPath>
    <g id="surface7" clip-path="url(#clip1)">
      <path style=" stroke:none;fill-rule:nonzero;fill:rgb(92.54902%,92.54902%,92.54902%);fill-opacity:1;" d="M 10.785156 27.625 C 10.6875 27.648438 10.621094 27.742188 10.628906 27.847656 L 10.628906 28.519531 L 10.0625 28.140625 C 9.832031 27.984375 9.605469 28.351562 9.839844 28.507812 L 10.628906 29.03125 L 10.628906 30.246094 L 9.628906 29.644531 L 9.585938 28.664062 C 9.585938 28.523438 9.460938 28.417969 9.332031 28.449219 C 9.234375 28.476562 9.164062 28.570312 9.171875 28.675781 L 9.203125 29.386719 L 8.648438 29.054688 C 8.402344 28.839844 8.144531 29.289062 8.4375 29.421875 L 9 29.757812 L 8.394531 30.089844 C 8.085938 30.199219 8.328125 30.675781 8.585938 30.46875 L 9.425781 30.023438 L 10.425781 30.625 L 9.414062 31.226562 L 8.585938 30.78125 C 8.328125 30.574219 8.085938 31.050781 8.394531 31.160156 L 8.992188 31.484375 L 8.4375 31.820312 C 8.195312 31.96875 8.410156 32.347656 8.648438 32.199219 L 9.203125 31.863281 L 9.171875 32.578125 C 9.164062 32.867188 9.578125 32.878906 9.585938 32.589844 L 9.628906 31.605469 L 10.628906 31.003906 L 10.628906 32.21875 L 9.839844 32.746094 C 9.605469 32.902344 9.828125 33.273438 10.0625 33.113281 L 10.628906 32.734375 L 10.628906 33.402344 C 10.628906 33.691406 11.042969 33.691406 11.042969 33.402344 L 11.042969 32.734375 L 11.617188 33.113281 C 11.851562 33.273438 12.074219 32.902344 11.839844 32.746094 L 11.042969 32.21875 L 11.042969 30.992188 L 12.042969 31.605469 L 12.082031 32.589844 C 12.089844 32.878906 12.503906 32.867188 12.5 32.578125 L 12.464844 31.863281 L 13.019531 32.199219 C 13.261719 32.347656 13.472656 31.96875 13.230469 31.820312 L 12.679688 31.484375 L 13.273438 31.160156 C 13.582031 31.050781 13.34375 30.574219 13.082031 30.78125 L 12.253906 31.226562 L 11.242188 30.625 L 12.242188 30.023438 L 13.082031 30.46875 C 13.34375 30.675781 13.582031 30.199219 13.273438 30.089844 L 12.667969 29.757812 L 13.230469 29.421875 C 13.523438 29.289062 13.265625 28.839844 13.019531 29.054688 L 12.464844 29.386719 L 12.5 28.675781 C 12.507812 28.523438 12.371094 28.40625 12.234375 28.449219 C 12.144531 28.480469 12.082031 28.566406 12.082031 28.664062 L 12.042969 29.644531 L 11.042969 30.246094 L 11.042969 29.03125 L 11.839844 28.507812 C 12.074219 28.351562 11.851562 27.984375 11.617188 28.140625 L 11.042969 28.519531 L 11.042969 27.847656 C 11.046875 27.722656 10.949219 27.621094 10.828125 27.625 C 10.816406 27.625 10.800781 27.625 10.785156 27.625 Z M 37.128906 28.171875 C 37.027344 28.191406 36.953125 28.285156 36.957031 28.394531 L 36.957031 29.066406 L 36.394531 28.683594 C 36.160156 28.53125 35.941406 28.898438 36.171875 29.054688 L 36.957031 29.578125 L 36.957031 30.792969 L 35.957031 30.191406 L 35.917969 29.210938 C 35.917969 29.070312 35.792969 28.964844 35.660156 28.996094 C 35.5625 29.023438 35.496094 29.117188 35.5 29.21875 L 35.535156 29.933594 L 34.980469 29.601562 C 34.726562 29.355469 34.453125 29.859375 34.777344 29.96875 L 35.332031 30.300781 L 34.726562 30.636719 C 34.417969 30.746094 34.65625 31.222656 34.917969 31.015625 L 35.757812 30.570312 L 36.757812 31.171875 L 35.757812 31.773438 L 34.917969 31.328125 C 34.65625 31.121094 34.417969 31.597656 34.726562 31.707031 L 35.320312 32.03125 L 34.777344 32.367188 C 34.519531 32.5 34.734375 32.902344 34.980469 32.746094 L 35.535156 32.410156 L 35.5 33.125 C 35.492188 33.414062 35.910156 33.425781 35.917969 33.136719 L 35.957031 32.152344 L 36.957031 31.550781 L 36.957031 32.765625 L 36.171875 33.292969 C 35.9375 33.449219 36.160156 33.816406 36.394531 33.660156 L 36.957031 33.28125 L 36.957031 33.949219 C 36.957031 34.238281 37.371094 34.238281 37.371094 33.949219 L 37.371094 33.28125 L 37.945312 33.660156 C 38.179688 33.816406 38.402344 33.449219 38.167969 33.292969 L 37.371094 32.765625 L 37.371094 31.539062 L 38.371094 32.152344 L 38.414062 33.136719 C 38.421875 33.421875 38.835938 33.414062 38.828125 33.125 L 38.796875 32.410156 L 39.351562 32.746094 C 39.589844 32.894531 39.804688 32.515625 39.5625 32.367188 L 39.019531 32.03125 L 39.605469 31.707031 C 39.914062 31.597656 39.671875 31.121094 39.414062 31.328125 L 38.585938 31.773438 L 37.585938 31.171875 L 38.585938 30.570312 L 39.414062 31.015625 C 39.671875 31.222656 39.914062 30.746094 39.605469 30.636719 L 39.007812 30.300781 L 39.5625 29.96875 C 39.855469 29.835938 39.597656 29.386719 39.351562 29.601562 L 38.796875 29.933594 L 38.828125 29.21875 C 38.835938 29.074219 38.707031 28.964844 38.574219 28.996094 C 38.480469 29.019531 38.414062 29.109375 38.414062 29.210938 L 38.371094 30.191406 L 37.371094 30.792969 L 37.371094 29.578125 L 38.167969 29.054688 C 38.402344 28.898438 38.179688 28.53125 37.945312 28.683594 L 37.371094 29.066406 L 37.371094 28.394531 C 37.375 28.273438 37.285156 28.175781 37.171875 28.171875 C 37.171875 28.171875 37.148438 28.171875 37.148438 28.171875 C 37.148438 28.171875 37.128906 28.171875 37.128906 28.171875 Z M 27.335938 28.929688 C 27.207031 28.964844 27.117188 29.089844 27.125 29.230469 L 27.125 30.125 L 26.359375 29.609375 C 26.046875 29.402344 25.75 29.894531 26.0625 30.101562 L 27.125 30.804688 L 27.125 32.445312 L 25.785156 31.628906 L 25.734375 30.300781 C 25.726562 30.128906 25.578125 29.996094 25.414062 30.023438 C 25.269531 30.046875 25.167969 30.183594 25.179688 30.335938 L 25.210938 31.273438 L 24.476562 30.828125 C 24.152344 30.632812 23.875 31.148438 24.203125 31.339844 L 24.933594 31.785156 L 24.136719 32.222656 C 23.757812 32.378906 24.050781 32.96875 24.394531 32.734375 L 25.507812 32.132812 L 26.847656 32.933594 L 25.507812 33.75 L 24.394531 33.148438 C 24.050781 32.910156 23.757812 33.5 24.136719 33.660156 L 24.933594 34.09375 L 24.203125 34.539062 C 23.839844 34.722656 24.148438 35.28125 24.476562 35.042969 L 25.210938 34.597656 L 25.179688 35.542969 C 25.140625 35.957031 25.742188 35.980469 25.734375 35.566406 L 25.785156 34.25 L 27.125 33.4375 L 27.125 35.066406 L 26.0625 35.765625 C 25.75 35.976562 26.046875 36.464844 26.359375 36.257812 L 27.125 35.746094 L 27.125 36.648438 C 27.097656 37.066406 27.707031 37.066406 27.679688 36.648438 L 27.679688 35.746094 L 28.445312 36.257812 C 28.753906 36.464844 29.050781 35.976562 28.742188 35.765625 L 27.679688 35.066406 L 27.679688 33.4375 L 29.027344 34.25 L 29.070312 35.566406 C 29.0625 35.980469 29.664062 35.957031 29.625 35.542969 L 29.589844 34.597656 L 30.324219 35.042969 C 30.65625 35.28125 30.964844 34.722656 30.601562 34.539062 L 29.867188 34.09375 L 30.664062 33.660156 C 31.042969 33.5 30.75 32.910156 30.410156 33.148438 L 29.304688 33.75 L 27.953125 32.945312 L 29.304688 32.132812 L 30.410156 32.734375 C 30.75 32.96875 31.042969 32.378906 30.664062 32.222656 L 29.867188 31.785156 L 30.601562 31.339844 C 30.925781 31.144531 30.652344 30.632812 30.324219 30.828125 L 29.589844 31.273438 L 29.625 30.335938 C 29.640625 30.148438 29.480469 29.996094 29.304688 30.023438 C 29.171875 30.046875 29.074219 30.164062 29.070312 30.300781 L 29.027344 31.617188 L 27.679688 32.433594 L 27.679688 30.804688 L 28.742188 30.101562 C 29.050781 29.894531 28.753906 29.402344 28.441406 29.609375 L 27.679688 30.125 L 27.679688 29.230469 C 27.683594 29.054688 27.539062 28.910156 27.371094 28.929688 C 27.359375 28.929688 27.347656 28.929688 27.335938 28.929688 Z M 17.75 34.730469 C 17.738281 34.734375 17.726562 34.738281 17.71875 34.742188 C 17.589844 34.773438 17.5 34.894531 17.503906 35.03125 L 17.503906 35.933594 L 16.738281 35.421875 C 16.429688 35.214844 16.128906 35.703125 16.441406 35.914062 L 17.503906 36.613281 L 17.503906 38.242188 L 16.15625 37.429688 L 16.113281 36.113281 C 16.113281 35.921875 15.9375 35.785156 15.761719 35.835938 C 15.632812 35.871094 15.550781 35.996094 15.558594 36.136719 L 15.589844 37.082031 L 14.859375 36.636719 C 14.527344 36.398438 14.21875 36.957031 14.582031 37.140625 L 15.316406 37.585938 L 14.519531 38.019531 C 14.140625 38.179688 14.433594 38.769531 14.773438 38.535156 L 15.878906 37.929688 L 17.21875 38.734375 L 15.878906 39.546875 L 14.773438 38.945312 C 14.433594 38.710938 14.140625 39.300781 14.519531 39.457031 L 15.316406 39.894531 L 14.582031 40.339844 C 14.253906 40.535156 14.53125 41.046875 14.859375 40.851562 L 15.589844 40.40625 L 15.558594 41.34375 C 15.519531 41.746094 16.109375 41.78125 16.113281 41.378906 L 16.15625 40.0625 L 17.503906 39.246094 L 17.503906 40.875 L 16.441406 41.578125 C 16.128906 41.785156 16.429688 42.277344 16.738281 42.070312 L 17.503906 41.554688 L 17.503906 42.449219 C 17.476562 42.863281 18.085938 42.863281 18.058594 42.449219 L 18.058594 41.554688 L 18.824219 42.070312 C 19.136719 42.277344 19.433594 41.785156 19.121094 41.578125 L 18.058594 40.875 L 18.058594 39.246094 L 19.40625 40.0625 L 19.449219 41.378906 C 19.453125 41.78125 20.042969 41.746094 20.003906 41.34375 L 19.972656 40.40625 L 20.703125 40.851562 C 21.03125 41.046875 21.308594 40.53125 20.980469 40.339844 L 20.246094 39.894531 L 21.042969 39.457031 C 21.421875 39.300781 21.132812 38.710938 20.789062 38.945312 L 19.683594 39.546875 L 18.335938 38.734375 L 19.683594 37.929688 L 20.789062 38.535156 C 21.132812 38.769531 21.421875 38.179688 21.042969 38.019531 L 20.246094 37.585938 L 20.980469 37.140625 C 21.34375 36.957031 21.035156 36.398438 20.703125 36.636719 L 19.972656 37.082031 L 20.003906 36.136719 C 20.015625 35.972656 19.894531 35.828125 19.738281 35.824219 C 19.582031 35.816406 19.449219 35.949219 19.449219 36.113281 L 19.40625 37.429688 L 18.058594 38.242188 L 18.058594 36.613281 L 19.121094 35.914062 C 19.441406 35.707031 19.136719 35.203125 18.824219 35.421875 L 18.058594 35.933594 L 18.058594 35.03125 C 18.066406 34.851562 17.917969 34.710938 17.75 34.730469 Z M 34.238281 37.003906 C 34.140625 37.03125 34.070312 37.125 34.078125 37.226562 L 34.078125 37.898438 L 33.503906 37.519531 C 33.269531 37.359375 33.042969 37.730469 33.28125 37.886719 L 34.078125 38.410156 L 34.078125 39.625 L 33.078125 39.023438 L 33.035156 38.03125 C 33.03125 37.890625 32.898438 37.789062 32.769531 37.832031 C 32.675781 37.859375 32.613281 37.953125 32.621094 38.054688 L 32.652344 38.769531 L 32.101562 38.433594 C 31.855469 38.21875 31.59375 38.671875 31.886719 38.800781 L 32.441406 39.136719 L 31.84375 39.46875 C 31.535156 39.578125 31.777344 40.054688 32.035156 39.847656 L 32.867188 39.390625 L 33.875 40.003906 L 32.867188 40.609375 L 32.035156 40.160156 C 31.777344 39.957031 31.535156 40.433594 31.84375 40.539062 L 32.441406 40.863281 L 31.886719 41.199219 C 31.648438 41.347656 31.859375 41.726562 32.101562 41.578125 L 32.652344 41.242188 L 32.621094 41.957031 C 32.613281 42.246094 33.027344 42.257812 33.035156 41.96875 L 33.078125 40.988281 L 34.078125 40.382812 L 34.078125 41.601562 L 33.28125 42.125 C 33.046875 42.28125 33.269531 42.648438 33.503906 42.492188 L 34.078125 42.113281 L 34.078125 42.78125 C 34.078125 43.074219 34.492188 43.074219 34.492188 42.78125 L 34.492188 42.113281 L 35.054688 42.492188 C 35.289062 42.648438 35.511719 42.28125 35.277344 42.125 L 34.492188 41.601562 L 34.492188 40.375 L 35.492188 40.988281 L 35.535156 41.96875 C 35.542969 42.257812 35.953125 42.246094 35.949219 41.957031 L 35.917969 41.242188 L 36.46875 41.578125 C 36.714844 41.738281 36.929688 41.335938 36.671875 41.199219 L 36.128906 40.863281 L 36.722656 40.539062 C 37.03125 40.433594 36.792969 39.957031 36.53125 40.160156 L 35.691406 40.609375 L 34.695312 40.003906 L 35.691406 39.402344 L 36.53125 39.847656 C 36.792969 40.054688 37.03125 39.578125 36.722656 39.46875 L 36.117188 39.136719 L 36.671875 38.800781 C 37 38.691406 36.722656 38.191406 36.46875 38.433594 L 35.917969 38.765625 L 35.949219 38.054688 C 35.957031 37.902344 35.820312 37.789062 35.683594 37.832031 C 35.597656 37.855469 35.535156 37.9375 35.535156 38.03125 L 35.492188 39.023438 L 34.492188 39.625 L 34.492188 38.410156 L 35.277344 37.886719 C 35.515625 37.730469 35.289062 37.359375 35.054688 37.519531 L 34.492188 37.898438 L 34.492188 37.226562 C 34.496094 37.105469 34.398438 37.003906 34.277344 37.003906 C 34.265625 37.003906 34.25 37.003906 34.238281 37.003906 Z M 34.238281 37.003906 "/>
    </g>
  </defs>
  <g id="surface1">
    <path style=" stroke:none;fill-rule:nonzero;fill:rgb(92.54902%,92.54902%,92.54902%);fill-opacity:1;" d="M 17.476562 10 C 17.128906 10 16.753906 10.015625 16.375 10.066406 C 10.316406 10.84375 10.5 16.042969 10.5 16.042969 C 8.019531 16.464844 6 18.628906 6 20.894531 C 6 23.160156 8.585938 25.164062 10.757812 25.746094 C 12.046875 26.09375 13.742188 25.746094 13.742188 25.746094 C 14.507812 27.097656 17.039062 28 18.800781 28 C 21.675781 28 24.632812 27.046875 25.3125 25.746094 C 25.3125 25.746094 37.222656 26.699219 39.695312 25.746094 C 43.292969 24.359375 42.171875 20.023438 39.777344 18.558594 C 37.382812 17.09375 34.253906 18.117188 34.253906 18.117188 C 34.253906 18.117188 34.238281 15.132812 30.851562 13.707031 C 27.46875 12.28125 24.613281 15.4375 24.613281 15.4375 C 24.613281 15.4375 22.714844 10.03125 17.476562 10 Z M 17.476562 10 "/>
    <use xlink:href="#surface7"/>
  </g>
</svg>

<svg xmlns="http://www.w3.org/2000/svg" xmlns:xlink="http://www.w3.org/1999/xlink" width="64" height="64" viewBox="0 0 48 48">
 <defs>
  <g id="surface7">
   <path d="m 10.785 27.625 c -0.098 0.023 -0.164 0.117 -0.156 0.223 l 0 0.672 l -0.566 -0.379 c -0.23 -0.156 -0.457 0.211 -0.223 0.367 l 0.789 0.523 l 0 1.215 l -1 -0.602 l -0.043 -0.98 c 0 -0.141 -0.125 -0.246 -0.254 -0.215 c -0.098 0.027 -0.168 0.121 -0.16 0.227 l 0.031 0.711 l -0.555 -0.332 c -0.246 -0.215 -0.504 0.234 -0.211 0.367 l 0.563 0.336 l -0.605 0.332 c -0.309 0.109 -0.066 0.586 0.191 0.379 l 0.84 -0.445 l 1 0.602 l -1.012 0.602 l -0.828 -0.445 c -0.258 -0.207 -0.5 0.27 -0.191 0.379 l 0.598 0.324 l -0.555 0.336 c -0.242 0.148 -0.027 0.527 0.211 0.379 l 0.555 -0.336 l -0.031 0.715 c -0.008 0.289 0.406 0.301 0.414 0.012 l 0.043 -0.984 l 1 -0.602 l 0 1.215 l -0.789 0.527 c -0.234 0.156 -0.012 0.527 0.223 0.367 l 0.566 -0.379 l 0 0.668 c 0 0.289 0.414 0.289 0.414 0 l 0 -0.668 l 0.574 0.379 c 0.234 0.16 0.457 -0.211 0.223 -0.367 l -0.797 -0.527 l 0 -1.227 l 1 0.613 l 0.039 0.984 c 0.008 0.289 0.422 0.277 0.418 -0.012 l -0.035 -0.715 l 0.555 0.336 c 0.242 0.148 0.453 -0.23 0.211 -0.379 l -0.551 -0.336 l 0.594 -0.324 c 0.309 -0.109 0.07 -0.586 -0.191 -0.379 l -0.828 0.445 l -1.012 -0.602 l 1 -0.602 l 0.84 0.445 c 0.262 0.207 0.5 -0.27 0.191 -0.379 l -0.605 -0.332 l 0.563 -0.336 c 0.293 -0.133 0.035 -0.582 -0.211 -0.367 l -0.555 0.332 l 0.035 -0.711 c 0.008 -0.152 -0.129 -0.27 -0.266 -0.227 c -0.09 0.031 -0.152 0.117 -0.152 0.215 l -0.039 0.98 l -1 0.602 l 0 -1.215 l 0.797 -0.523 c 0.234 -0.156 0.012 -0.523 -0.223 -0.367 l -0.574 0.379 l 0 -0.672 c 0.004 -0.125 -0.094 -0.227 -0.215 -0.223 c -0.012 0 -0.027 0 -0.043 0 m 26.344 0.547 c -0.102 0.02 -0.176 0.113 -0.172 0.223 l 0 0.672 l -0.563 -0.383 c -0.234 -0.152 -0.453 0.215 -0.223 0.371 l 0.785 0.523 l 0 1.215 l -1 -0.602 l -0.039 -0.98 c 0 -0.141 -0.125 -0.246 -0.258 -0.215 c -0.098 0.027 -0.164 0.121 -0.16 0.223 l 0.035 0.715 l -0.555 -0.332 c -0.254 -0.246 -0.527 0.258 -0.203 0.367 l 0.555 0.332 l -0.605 0.336 c -0.309 0.109 -0.07 0.586 0.191 0.379 l 0.84 -0.445 l 1 0.602 l -1 0.602 l -0.84 -0.445 c -0.262 -0.207 -0.5 0.27 -0.191 0.379 l 0.594 0.324 l -0.543 0.336 c -0.258 0.133 -0.043 0.535 0.203 0.379 l 0.555 -0.336 l -0.035 0.715 c -0.008 0.289 0.41 0.301 0.418 0.012 l 0.039 -0.984 l 1 -0.602 l 0 1.215 l -0.785 0.527 c -0.234 0.156 -0.012 0.523 0.223 0.367 l 0.563 -0.379 l 0 0.668 c 0 0.289 0.414 0.289 0.414 0 l 0 -0.668 l 0.574 0.379 c 0.234 0.156 0.457 -0.211 0.223 -0.367 l -0.797 -0.527 l 0 -1.227 l 1 0.613 l 0.043 0.984 c 0.008 0.285 0.422 0.277 0.414 -0.012 l -0.031 -0.715 l 0.555 0.336 c 0.238 0.148 0.453 -0.23 0.211 -0.379 l -0.543 -0.336 l 0.586 -0.324 c 0.309 -0.109 0.066 -0.586 -0.191 -0.379 l -0.828 0.445 l -1 -0.602 l 1 -0.602 l 0.828 0.445 c 0.258 0.207 0.5 -0.27 0.191 -0.379 l -0.598 -0.336 l 0.555 -0.332 c 0.293 -0.133 0.035 -0.582 -0.211 -0.367 l -0.555 0.332 l 0.031 -0.715 c 0.008 -0.145 -0.121 -0.254 -0.254 -0.223 c -0.094 0.023 -0.16 0.113 -0.16 0.215 l -0.043 0.98 l -1 0.602 l 0 -1.215 l 0.797 -0.523 c 0.234 -0.156 0.012 -0.523 -0.223 -0.371 l -0.574 0.383 l 0 -0.672 c 0.004 -0.121 -0.086 -0.219 -0.199 -0.223 c 0 0 -0.023 0 -0.023 0 c 0 0 -0.02 0 -0.02 0 m -9.793 0.758 c -0.129 0.035 -0.219 0.16 -0.211 0.301 l 0 0.895 l -0.766 -0.516 c -0.313 -0.207 -0.609 0.285 -0.297 0.492 l 1.063 0.703 l 0 1.641 l -1.34 -0.816 l -0.051 -1.328 c -0.008 -0.172 -0.156 -0.305 -0.32 -0.277 c -0.145 0.023 -0.246 0.16 -0.234 0.313 l 0.031 0.938 l -0.734 -0.445 c -0.324 -0.195 -0.602 0.32 -0.273 0.512 l 0.73 0.445 l -0.797 0.438 c -0.379 0.156 -0.086 0.746 0.258 0.512 l 1.113 -0.602 l 1.34 0.801 l -1.34 0.816 l -1.113 -0.602 c -0.344 -0.238 -0.637 0.352 -0.258 0.512 l 0.797 0.434 l -0.73 0.445 c -0.363 0.184 -0.055 0.742 0.273 0.504 l 0.734 -0.445 l -0.031 0.945 c -0.039 0.414 0.563 0.438 0.555 0.023 l 0.051 -1.316 l 1.34 -0.813 l 0 1.629 l -1.063 0.699 c -0.313 0.211 -0.016 0.699 0.297 0.492 l 0.766 -0.512 l 0 0.902 c -0.027 0.418 0.582 0.418 0.555 0 l 0 -0.902 l 0.766 0.512 c 0.309 0.207 0.605 -0.281 0.297 -0.492 l -1.063 -0.699 l 0 -1.629 l 1.348 0.813 l 0.043 1.316 c -0.008 0.414 0.594 0.391 0.555 -0.023 l -0.035 -0.945 l 0.734 0.445 c 0.332 0.238 0.641 -0.32 0.277 -0.504 l -0.734 -0.445 l 0.797 -0.434 c 0.379 -0.16 0.086 -0.75 -0.254 -0.512 l -1.105 0.602 l -1.352 -0.805 l 1.352 -0.813 l 1.105 0.602 c 0.34 0.234 0.633 -0.355 0.254 -0.512 l -0.797 -0.438 l 0.734 -0.445 c 0.324 -0.195 0.051 -0.707 -0.277 -0.512 l -0.734 0.445 l 0.035 -0.938 c 0.016 -0.188 -0.145 -0.34 -0.32 -0.313 c -0.133 0.023 -0.23 0.141 -0.234 0.277 l -0.043 1.316 l -1.348 0.816 l 0 -1.629 l 1.063 -0.703 c 0.309 -0.207 0.012 -0.699 -0.301 -0.492 l -0.762 0.516 l 0 -0.895 c 0.004 -0.176 -0.141 -0.32 -0.309 -0.301 c -0.012 0 -0.023 0 -0.035 0 m -9.586 5.801 c -0.012 0.004 -0.023 0.008 -0.031 0.012 c -0.129 0.031 -0.219 0.152 -0.215 0.289 l 0 0.902 l -0.766 -0.512 c -0.309 -0.207 -0.609 0.281 -0.297 0.492 l 1.063 0.699 l 0 1.629 l -1.348 -0.813 l -0.043 -1.316 c 0 -0.191 -0.176 -0.328 -0.352 -0.277 c -0.129 0.035 -0.211 0.16 -0.203 0.301 l 0.031 0.945 l -0.73 -0.445 c -0.332 -0.238 -0.641 0.32 -0.277 0.504 l 0.734 0.445 l -0.797 0.434 c -0.379 0.16 -0.086 0.75 0.254 0.516 l 1.105 -0.605 l 1.34 0.805 l -1.34 0.813 l -1.105 -0.602 c -0.34 -0.234 -0.633 0.355 -0.254 0.512 l 0.797 0.438 l -0.734 0.445 c -0.328 0.195 -0.051 0.707 0.277 0.512 l 0.73 -0.445 l -0.031 0.938 c -0.039 0.402 0.551 0.438 0.555 0.035 l 0.043 -1.316 l 1.348 -0.816 l 0 1.629 l -1.063 0.703 c -0.313 0.207 -0.012 0.699 0.297 0.492 l 0.766 -0.516 l 0 0.895 c -0.027 0.414 0.582 0.414 0.555 0 l 0 -0.895 l 0.766 0.516 c 0.313 0.207 0.609 -0.285 0.297 -0.492 l -1.063 -0.703 l 0 -1.629 l 1.348 0.816 l 0.043 1.316 c 0.004 0.402 0.594 0.367 0.555 -0.035 l -0.031 -0.938 l 0.73 0.445 c 0.328 0.195 0.605 -0.32 0.277 -0.512 l -0.734 -0.445 l 0.797 -0.438 c 0.379 -0.156 0.09 -0.746 -0.254 -0.512 l -1.105 0.602 l -1.348 -0.813 l 1.348 -0.805 l 1.105 0.605 c 0.344 0.234 0.633 -0.355 0.254 -0.516 l -0.797 -0.434 l 0.734 -0.445 c 0.363 -0.184 0.055 -0.742 -0.277 -0.504 l -0.73 0.445 l 0.031 -0.945 c 0.012 -0.164 -0.109 -0.309 -0.266 -0.313 c -0.156 -0.008 -0.289 0.125 -0.289 0.289 l -0.043 1.316 l -1.348 0.813 l 0 -1.629 l 1.063 -0.699 c 0.32 -0.207 0.016 -0.711 -0.297 -0.492 l -0.766 0.512 l 0 -0.902 c 0.008 -0.18 -0.141 -0.32 -0.309 -0.301 m 16.488 2.273 c -0.098 0.027 -0.168 0.121 -0.16 0.223 l 0 0.672 l -0.574 -0.379 c -0.234 -0.16 -0.461 0.211 -0.223 0.367 l 0.797 0.523 l 0 1.215 l -1 -0.602 l -0.043 -0.992 c -0.004 -0.141 -0.137 -0.242 -0.266 -0.199 c -0.094 0.027 -0.156 0.121 -0.148 0.223 l 0.031 0.715 l -0.551 -0.336 c -0.246 -0.215 -0.508 0.238 -0.215 0.367 l 0.555 0.336 l -0.598 0.332 c -0.309 0.109 -0.066 0.586 0.191 0.379 l 0.832 -0.457 l 1.01 0.613 l -1.01 0.605 l -0.832 -0.449 c -0.258 -0.203 -0.5 0.273 -0.191 0.379 l 0.598 0.324 l -0.555 0.336 c -0.238 0.148 -0.027 0.527 0.215 0.379 l 0.551 -0.336 l -0.031 0.715 c -0.008 0.289 0.406 0.301 0.414 0.012 l 0.043 -0.98 l 1 -0.605 l 0 1.219 l -0.797 0.523 c -0.234 0.156 -0.012 0.523 0.223 0.367 l 0.574 -0.379 l 0 0.668 c 0 0.293 0.414 0.293 0.414 0 l 0 -0.668 l 0.563 0.379 c 0.234 0.156 0.457 -0.211 0.223 -0.367 l -0.785 -0.523 l 0 -1.227 l 1 0.613 l 0.043 0.98 c 0.008 0.289 0.418 0.277 0.414 -0.012 l -0.031 -0.715 l 0.551 0.336 c 0.246 0.16 0.461 -0.242 0.203 -0.379 l -0.543 -0.336 l 0.594 -0.324 c 0.309 -0.105 0.07 -0.582 -0.191 -0.379 l -0.84 0.449 l -0.996 -0.605 l 0.996 -0.602 l 0.84 0.445 c 0.262 0.207 0.5 -0.27 0.191 -0.379 l -0.605 -0.332 l 0.555 -0.336 c 0.328 -0.109 0.051 -0.609 -0.203 -0.367 l -0.551 0.332 l 0.031 -0.711 c 0.008 -0.152 -0.129 -0.266 -0.266 -0.223 c -0.086 0.023 -0.148 0.105 -0.148 0.199 l -0.043 0.992 l -1 0.602 l 0 -1.215 l 0.785 -0.523 c 0.238 -0.156 0.012 -0.527 -0.223 -0.367 l -0.563 0.379 l 0 -0.672 c 0.004 -0.121 -0.094 -0.223 -0.215 -0.223 c -0.012 0 -0.027 0 -0.039 0 m 0 0" style="fill:#ececec;fill-opacity:1;stroke:none;fill-rule:nonzero"/>
  </g>
 </defs>
 <g>
  <path d="m 17.477 10 c -0.348 0 -0.723 0.016 -1.102 0.066 c -6.06 0.777 -5.875 5.977 -5.875 5.977 c -2.48 0.422 -4.5 2.586 -4.5 4.852 c 0 2.266 2.586 4.27 4.758 4.852 c 1.289 0.348 2.984 0 2.984 0 c 0.766 1.352 3.297 2.254 5.059 2.254 c 2.875 0 5.832 -0.953 6.512 -2.254 c 0 0 11.91 0.953 14.383 0 c 3.598 -1.387 2.477 -5.723 0.082 -7.188 c -2.395 -1.465 -5.523 -0.441 -5.523 -0.441 c 0 0 -0.016 -2.984 -3.402 -4.41 c -3.383 -1.426 -6.238 1.73 -6.238 1.73 c 0 0 -1.898 -5.406 -7.137 -5.438 m 0 0" style="fill:#ececec;fill-opacity:1;stroke:none;fill-rule:nonzero"/>
  <use xlink:href="#surface7"/>
 </g>
</svg>
